X: 3
T: Superfly
R: reel
M: 4/4
L: 1/8
K: Bmin
bffe f3e|dfef d2B2|cded cBA2|BdcA BAFA|\bffe f3e|dfef d2B2|cded cBA2|BdcA B4::\BdcB A2(A2|A)Bcd cBBA|BdcB A2(A2|A)Bcd B4|\BdcB A2(A2|A)Bcd cBBA|BdcB A2(A2|A)Bcd B4:|


Tune 9942	Setting 9942

